X: 55
T:Deirdre Shannon's
M:4/4
L:1/8
S:Ciaran Kelly, Moneymore, Derry (Accordian)
R:Reel
D:Session tape - The Cross Keys, Antrim
Z:Bernie Stocks
K:D
d2dc dAFf | gece dBAG | (3FED AD BDAD | E2ED EFGA | d2dc dAFf | gece dBAG |\
FGAB cdef | gece d3e :: fdAG FAde | fdAG FAdf | gefd e3d |\
cedB A2de | fdAG FAde | fdge cABc | dBcA BGAF | GECE D4 :|
<end>
<start>
